X:1
T:Reichelsheim, 67.67
T:Reichelsheim, 67.67
T:Eric Hubert Swinstead (1882-1950)
T:Public Domain Courtesy of the Cyber Hymnal™
C:Eric Hubert Swinstead (1882-1950)
Z:Public Domain
Z:Courtesy of the Cyber Hymnal™
%%score ( 1 2 ) ( 3 4 )
L:1/8
Q:1/4=110
M:4/4
K:Eb
V:1 treble 
V:2 treble 
V:3 bass 
V:4 bass 
V:1
 [B,F]2 [B,E]2 | (E2 D2) [DG]2 [DF]2 | (F2 E2) [EA]2 [EG]2 | [DG]2 [DF]2 [EB]2 [DA]2 | %4
 (A2 G2) !fermata![Ee]2 [Ed]2 | (d2 c2) [DB]2 [DA]2 | [DG]4 [EG]2 G2 | %7
 [B,EB]2 [CEG]2 [B,EG]2 [A,DF]2 | [G,E]4 x4 |] x4 |] %10
V:2
 x4 | A,4 x4 | B,4 x4 | x8 | E4 x4 | E4 x4 | x6 (DC) | x8 | x8 |] x4 |] %10
V:3
 [B,,G,]2 [B,,G,]2 | [B,,F,]4 [B,,A,]2 [B,,A,]2 | [B,,G,]4 [B,,C]2 [B,,B,]2 | %3
 [B,,B,]2 (B,A,) [G,B,]2 [F,B,]2 | [E,B,]4 x4 | !fermata![G,,G,]2 [G,,G,]2 x4 | %6
 [A,,A,]4 [B,,F,]2 [B,,F,]2 | [=B,,F,]4 [C,E,]2 (_B,,A,,) | G,,2 A,,2 B,,2 B,,2 |] [E,,E,]4 |] %10
V:4
 x4 | x8 | x8 | x2 B,,2 x4 | x8 | x8 | x8 | x8 | x8 |] x4 |] %10

